epam-assets/icon-sources/18/editor-format_text_color.svg

<svg width="18" height="18" viewBox="0 0 18 18" fill="none" xmlns="http://www.w3.org/2000/svg">
<g id="18/editor-format_text_color">
<path id="icon" fill-rule="evenodd" clip-rule="evenodd" d="M0 15H18V18H0V15ZM8.25 2.25L4.125 12.75H5.8125L6.6525 10.5H11.34L12.18 12.75H13.8675L9.75 2.25H8.25ZM7.215 9L9 4.2525L10.785 9H7.215Z" fill="#6C6F80"/>
</g>
</svg>

<svg xmlns="http://www.w3.org/2000/svg" width="18" height="18" fill="none" viewBox="0 0 18 18">
  <path fill="#6C6F80" fill-rule="evenodd" d="M0 15h18v3H0v-3ZM8.25 2.25l-4.125 10.5h1.688l.84-2.25h4.687l.84 2.25h1.688L9.75 2.25h-1.5ZM7.215 9 9 4.253 10.785 9h-3.57Z" clip-rule="evenodd"/>
</svg>
